!!!COM: Bach, Johann Sebastian
!!!OPR: Die Kunst der Fuge
!!!XEN: The Art of Fugue
!!!OTL:
!!!OMV: 5
!!!SCT: BWV 1080
!!!SCA: Thematisch-systematisches Verzeichnis der musikalischen Werke Johann Sebastian Bach: Bach-Werke-Verzeichnis (Schmieder)
!!!YOR: Bach Gesellschaft Edition xxv,1
!!!EED: Frances Bennion
!!!ENC: Frances Bennion
!!!CDT: 1685/3//-1750/7/28/
!!!OCY: Deutschland
!!!YEC: Copyright (c) 1994, 2000 Center for Computer Assisted Research in the Humanities
!!!YEM: Rights to all derivative editions reserved.
!!!YEM: Refer to licensing agreement for further details.
!!!YEN: United States of America
**kern	**kern	**kern	**kern	**kern	**kern	**kern
*k[b-]	*k[b-]	*k[b-]	*k[b-]	*k[b-]	*k[b-]	*k[b-]
*d:	*d:	*d:	*d:	*d:	*d:	*d:
*clefG	*clefG	*clefG	*clefG	*clefC	*clefC	*clefC
*M4/4	*M4/4	*M4/4	*M4/4	*M4/4	*M4/4	*M4/4
=1	=1	=1	=1	=1	=1	=1
1r	1r	2a	1r	1r	1r	1r
.	.	4.d	.	.	.	.
.	.	8e	.	.	.	.
=2	=2	=2	=2	=2	=2	=2
1r	1r	4.f	1r	1r	1r	1r
.	.	8g	.	.	.	.
.	.	2a	.	.	.	.
=3	=3	=3	=3	=3	=3	=3
1r	1r	2b-	1r	1r	1r	1r
.	.	4.a	.	.	.	.
.	.	8g	.	.	.	.
=4	=4	=4	=4	=4	=4	=4
1r	1r	[2f	1r	1r	2D	1r
.	.	8f]	.	.	4.A	.
.	.	8e	.	.	.	.
.	.	8f	.	.	.	.
.	.	8g	.	.	8G	.
=5	=5	=5	=5	=5	=5	=5
1r	1r	8a	1r	1r	4.F	1r
.	.	8b-	.	.	.	.
.	.	4.cc	.	.	.	.
.	.	.	.	.	8E	.
.	.	.	.	.	2D	.
.	.	8b-	.	.	.	.
.	.	8a	.	.	.	.
.	.	8b-	.	.	.	.
=6	=6	=6	=6	=6	=6	=6
1r	1r	8e	1r	1r	2C#	1r
.	.	8f	.	.	.	.
.	.	4.g	.	.	.	.
.	.	.	.	.	4.D	.
.	.	8a	.	.	.	.
.	.	8f	.	.	.	.
.	.	8g	.	.	8E	.
=7	=7	=7	=7	=7	=7	=7
2dd	1r	8a	1r	1r	[2F	1r
.	.	8g	.	.	.	.
.	.	8f	.	.	.	.
.	.	8e	.	.	.	.
4.aa	.	8d	.	.	8F]	.
.	.	8B	.	.	8G	.
.	.	4c#	.	.	8F	.
8gg	.	.	.	.	8E	.
=8	=8	=8	=8	=8	=8	=8
4.ff	1r	[2d	1r	1r	8D	1r
.	.	.	.	.	8F	.
.	.	.	.	.	8G	.
8ee	.	.	.	.	8A	.
2dd	.	8d]	.	.	2B-	.
.	.	8e	.	.	.	.
.	.	8f	.	.	.	.
.	.	8g	.	.	.	.
=9	=9	=9	=9	=9	=9	=9
2cc#	1r	8a	1r	1r	4.A	1r
.	.	8e	.	.	.	.
.	.	4.a	.	.	.	.
.	.	.	.	.	8AA	.
4.dd	.	.	.	.	4.BB	.
.	.	8d	.	.	.	.
.	.	4g	.	.	.	.
8ee	.	.	.	.	8C#	.
=10	=10	=10	=10	=10	=10	=10
[2ff	1r	8f	1r	2d	4.D	1r
.	.	8a	.	.	.	.
.	.	8b	.	.	.	.
.	.	8cc#	.	.	8E	.
8ff]	.	8dd	.	4.A	4F	.
8aa	.	8a	.	.	.	.
8gg	.	4dd	.	.	4D	.
8ff	.	.	.	8B	.	.
=11	=11	=11	=11	=11	=11	=11
8ee	1r	2cc	1r	4.c	[2A	1r
8gg#	.	.	.	.	.	.
8aa	.	.	.	.	.	.
8bb	.	.	.	8d	.	.
[2ccc	.	2r	.	2e	8A]	.
.	.	.	.	.	8A	.
.	.	.	.	.	8B-	.
.	.	.	.	.	8c	.
=12	=12	=12	=12	=12	=12	=12
8ccc]	1r	2r	1r	2f	2d	1r
8ccc	.	.	.	.	.	.
8bb-	.	.	.	.	.	.
8aa	.	.	.	.	.	.
[2bb-	.	8r	.	4.e	[2G	.
.	.	8aa	.	.	.	.
.	.	8gg	.	.	.	.
.	.	8ff	.	8d	.	.
=13	=13	=13	=13	=13	=13	=13
8bb-]	1r	[2ee	1r	[2c#	8G]	1r
8bb-	.	.	.	.	8G	.
8aa	.	.	.	.	8F	.
8gg	.	.	.	.	8E	.
[2aa	.	8ee]	.	8c#]	[2F	.
.	.	8gg	.	8A	.	.
.	.	8ff	.	8B	.	.
.	.	8ee	.	8c#	.	.
=14	=14	=14	=14	=14	=14	=14
4aa]	1r	2ff	1r	[2d	8F]	1r
.	.	.	.	.	8F	.
4bb-	.	.	.	.	8E	.
.	.	.	.	.	8D	.
[2gg	.	[2ee	.	8d]	2E	.
.	.	.	.	8d	.	.
.	.	.	.	8c#	.	.
.	.	.	.	8B	.	.
=15	=15	=15	=15	=15	=15	=15
2.gg]	1r	8ee]	1r	4c#	[1A	1r
.	.	8a	.	.	.	.
.	.	8b	.	8d	.	.
.	.	8cc#	.	8e	.	.
.	.	8dd	.	8f	.	.
.	.	8a	.	8e	.	.
4ff	.	[4dd	.	8f	.	.
.	.	.	.	8g	.	.
=16	=16	=16	=16	=16	=16	=16
2ee	1r	8dd]	1r	4a	2A_	1r
.	.	8dd	.	.	.	.
.	.	8cc#	.	4e	.	.
.	.	8b	.	.	.	.
2r	.	2cc#	.	2a	8A]	.
.	.	.	.	.	8B-	.
.	.	.	.	.	8A]	.
.	.	.	.	.	8G	.
=17	=17	=17	=17	=17	=17	=17
2dd	1r	8r	1r	1r	2.F	1r
.	.	8A	.	.	.	.
.	.	8B	.	.	.	.
.	.	8c#	.	.	.	.
4.a	.	8d	.	.	.	.
.	.	8e	.	.	.	.
.	.	[4f	.	.	4D	.
8b	.	.	.	.	.	.
=18	=18	=18	=18	=18	=18	=18
4.cc	1r	8f]	1r	1r	4A	1r
.	.	8g	.	.	.	.
.	.	4.a	.	.	4F	.
8dd	.	.	.	.	.	.
2ee	.	.	.	.	[2c	.
.	.	8g	.	.	.	.
.	.	8f	.	.	.	.
.	.	8e	.	.	.	.
=19	=19	=19	=19	=19	=19	=19
2ff	1r	4d	1r	1r	8c]	1r
.	.	.	.	.	8c	.
.	.	4.dd	.	.	8B	.
.	.	.	.	.	8A	.
4.ee	.	.	.	.	2G#	.
.	.	8dd	.	.	.	.
.	.	8cc	.	.	.	.
8dd	.	8b	.	.	.	.
=20	=20	=20	=20	=20	=20	=20
[2cc	1r	8a	1r	2A	[2A	1r
.	.	8e	.	.	.	.
.	.	8f#	.	.	.	.
.	.	8g#	.	.	.	.
8cc]	.	[2a	.	4.e	8A]	.
8b	.	.	.	.	8G	.
8cc	.	.	.	.	4F	.
8dd	.	.	.	8d	.	.
=21	=21	=21	=21	=21	=21	=21
4ee	1r	8a]	1r	4.c	[1E	1r
.	.	8g#	.	.	.	.
4.dd#	.	8a	.	.	.	.
.	.	8b	.	8B	.	.
.	.	2cc	.	2A	.	.
8ff#	.	.	.	.	.	.
8ee	.	.	.	.	.	.
8dd#	.	.	.	.	.	.
=22	=22	=22	=22	=22	=22	=22
8ee	1r	[2b	1r	2G#	2E]	1r
8dd	.	.	.	.	.	.
8cc	.	.	.	.	.	.
8b	.	.	.	.	.	.
4.cc	.	8b]	.	4.A	2r	.
.	.	8b	.	.	.	.
.	.	8a	.	.	.	.
8b	.	8g#	.	8B	.	.
=23	=23	=23	=23	=23	=23	=23
[2a	1r	8a	1r	[2c	2A	1r
.	.	8g	.	.	.	.
.	.	8f	.	.	.	.
.	.	8e	.	.	.	.
8a]	.	4.f	.	8c]	4.D	.
8b-	.	.	.	8d	.	.
8a	.	.	.	8c	.	.
8g	.	8g	.	8B-	8E	.
=24	=24	=24	=24	=24	=24	=24
8a	1r	4c	1r	2A	4.F	1r
8cc	.	.	.	.	.	.
8dd	.	2.r	.	.	.	.
8ee	.	.	.	.	8G	.
8ff	.	.	.	8r	2A	.
8gg	.	.	.	8e	.	.
[4aa	.	.	.	8d	.	.
.	.	.	.	8c#	.	.
=25	=25	=25	=25	=25	=25	=25
8aa]	1r	1r	1r	[2d	2B-	1r
8gg	.	.	.	.	.	.
8ff	.	.	.	.	.	.
8ee	.	.	.	.	.	.
8ff	.	.	.	8d]	4.A	.
8ee	.	.	.	8c#	.	.
8dd	.	.	.	4e	.	.
8cc#	.	.	.	.	8G	.
=26	=26	=26	=26	=26	=26	=26
8dd	1r	2d	1r	2.A	[2F	1r
8a	.	.	.	.	.	.
8b	.	.	.	.	.	.
8cc#	.	.	.	.	.	.
[2dd	.	4.a	.	.	8F]	.
.	.	.	.	.	8E	.
.	.	.	.	[4d	8F	.
.	.	8g	.	.	8G	.
=27	=27	=27	=27	=27	=27	=27
8dd]	1r	4.f	1r	4.d]	2A	1r
8cc	.	.	.	.	.	.
8b-	.	.	.	.	.	.
8a	.	8e	.	8c	.	.
[2g	.	2d	.	[2B-	8r	.
.	.	.	.	.	8A	.
.	.	.	.	.	8G	.
.	.	.	.	.	8F	.
=28	=28	=28	=28	=28	=28	=28
2g_	1r	2c#	1r	8B-]	2E	1r
.	.	.	.	8B-	.	.
.	.	.	.	8A	.	.
.	.	.	.	8G	.	.
8g]	.	4.d	.	4.A	[2D	.
8f	.	.	.	.	.	.
4b-	.	.	.	.	.	.
.	.	8e	.	8G	.	.
=29	=29	=29	=29	=29	=29	=29
4a	1r	[2f	1r	4A	8D]	1r
.	.	.	.	.	8D	.
2.r	.	.	.	4B-	8C	.
.	.	.	.	.	8BB-	.
.	.	8f]	.	[2c	2AA	.
.	.	8g	.	.	.	.
.	.	8f	.	.	.	.
.	.	8e-	.	.	.	.
=30	=30	=30	=30	=30	=30	=30
1r	1r	[1d	1r	8c]	[2BB-	1r
.	.	.	.	8B-	.	.
.	.	.	.	8A	.	.
.	.	.	.	8G	.	.
.	.	.	.	4F	8BB-]	.
.	.	.	.	.	8BB-	.
.	.	.	.	4G	8AA	.
.	.	.	.	.	8GG	.
=31	=31	=31	=31	=31	=31	=31
1r	1r	8d]	1r	[2A	2FF#	1r
.	.	8e-	.	.	.	.
.	.	8d	.	.	.	.
.	.	8c	.	.	.	.
.	.	[2B-	.	8A]	[2GG	.
.	.	.	.	8G	.	.
.	.	.	.	8F	.	.
.	.	.	.	8E	.	.
=32	=32	=32	=32	=32	=32	=32
1r	1r	2B-_	1r	4D	8GG]	1r
.	.	.	.	.	8GG	.
.	.	.	.	4E	8FF	.
.	.	.	.	.	8EE	.
.	.	8B-]	.	4F	4DD	.
.	.	8d	.	.	.	.
.	.	8c	.	[4G	4EE	.
.	.	8B-]	.	.	.	.
=33	=33	=33	=33	=33	=33	=33
2r	1r	4.A	1r	8G]	2FF	1r
.	.	.	.	8G	.	.
.	.	.	.	2F	.	.
.	.	8a	.	.	.	.
2cc	.	8g	.	.	4.C	.
.	.	8f	.	.	.	.
.	.	4g	.	4E	.	.
.	.	.	.	.	8BB-	.
=34	=34	=34	=34	=34	=34	=34
4.f	1r	4c	1r	8F	4.AA	1r
.	.	.	.	8C	.	.
.	.	4.r	.	8D	.	.
8g]	.	.	.	8E	8GG	.
4.a	.	.	.	4F	2FF	.
.	.	8f	.	.	.	.
.	.	8e	.	4r	.	.
8b-	.	8d	.	.	.	.
=35	=35	=35	=35	=35	=35	=35
2cc	1r	8g	1r	4.r	2EE	1r
.	.	8a	.	.	.	.
.	.	4.b-	.	.	.	.
.	.	.	.	8C	.	.
2dd	.	.	.	4.F	4.FF	.
.	.	8a	.	.	.	.
.	.	4b-	.	.	.	.
.	.	.	.	8E	8GG	.
=36	=36	=36	=36	=36	=36	=36
4.cc	1r	4a	1r	8F	[2AA	1r
.	.	.	.	8A	.	.
.	.	4e	.	[2.c	.	.
8b-	.	.	.	.	.	.
[2a	.	[2f	.	.	8AA]	.
.	.	.	.	.	8BB-	.
.	.	.	.	.	8AA	.
.	.	.	.	.	8GG	.
=37	=37	=37	=37	=37	=37	=37
8a]	1r	8f]	1r	8c]	[2FF	1r
8g	.	8e	.	8B-	.	.
8a	.	8f	.	8A	.	.
8b-	.	8g	.	8G	.	.
[2cc	.	[2a	.	[2F	8FF]	.
.	.	.	.	.	8AA	.
.	.	.	.	.	8BB-	.
.	.	.	.	.	8C	.
=38	=38	=38	=38	=38	=38	=38
8cc]	1r	8a]	1r	8F]	[2D	1r
8dd	.	8b-	.	8E	.	.
8cc	.	8a	.	8F	.	.
8b-	.	8g	.	8G	.	.
4a	.	4f	.	4A	8D]	.
.	.	.	.	.	8E	.
[4ff	.	4a	.	4r	8D	.
.	.	.	.	.	8C	.
=39	=39	=39	=39	=39	=39	=39
4ff]	1r	2g	1r	1r	8BB	1r
.	.	.	.	.	8D	.
2ee	.	.	.	.	8C	.
.	.	.	.	.	8BB	.
.	.	2f	.	.	8AA	.
.	.	.	.	.	8GG	.
[4dd	.	.	.	.	8AA	.
.	.	.	.	.	8BB	.
=40	=40	=40	=40	=40	=40	=40
4dd]	1r	2e	1r	1r	8C	1r
.	.	.	.	.	8D	.
2cc	.	.	.	.	8E	.
.	.	.	.	.	8F	.
.	.	2d	.	.	8G	.
.	.	.	.	.	8A	.
[4b-	.	.	.	.	8G	.
.	.	.	.	.	8F	.
=41	=41	=41	=41	=41	=41	=41
4.b-]	1r	4c	1r	2c	8E	1r
.	.	.	.	.	8C	.
.	.	4r	.	.	2F	.
8a	.	.	.	.	.	.
8cc	.	2g	.	4.G	.	.
8b	.	.	.	.	.	.
4cc	.	.	.	.	4E-	.
.	.	.	.	8A	.	.
=42	=42	=42	=42	=42	=42	=42
8f#	1r	4.dd	1r	4.B-	[1D	1r
8d	.	.	.	.	.	.
4.g	.	.	.	.	.	.
.	.	8cc	.	8c	.	.
.	.	4.b-	.	2d	.	.
8gg	.	.	.	.	.	.
4ff	.	.	.	.	.	.
.	.	8a	.	.	.	.
=43	=43	=43	=43	=43	=43	=43
4.b-	1r	2g	1r	2e-	8D]	1r
.	.	.	.	.	8GG	.
.	.	.	.	.	4.C	.
8a	.	.	.	.	.	.
4dd	.	2f#	.	4.d	.	.
.	.	.	.	.	8C	.
4r	.	.	.	.	8BB-	.
.	.	.	.	8c	8AA	.
=44	=44	=44	=44	=44	=44	=44
2.r	1r	4.g	1r	[2B-	8GG	1r
.	.	.	.	.	8D	.
.	.	.	.	.	8E	.
.	.	8a	.	.	8F#	.
.	.	[2b-	.	8B-]	[2G	.
.	.	.	.	8A	.	.
4dd	.	.	.	8B-	.	.
.	.	.	.	8c	.	.
=45	=45	=45	=45	=45	=45	=45
2.gg	1r	8b-]	1r	[2d	4G]	1r
.	.	8cc	.	.	.	.
.	.	8b-	.	.	4F	.
.	.	8a	.	.	.	.
.	.	8g	.	8d]	[2E-	.
.	.	8b-	.	8d	.	.
8ff	.	8a	.	8c	.	.
8ee-	.	8g	.	8B-	.	.
=46	=46	=46	=46	=46	=46	=46
[2ff	1r	4a	1r	[2c	8E-]	1r
.	.	.	.	.	8E-	.
.	.	4cc	.	.	8D	.
.	.	.	.	.	8C	.
8ff]	.	4.f	.	8c]	4.D	.
8ee-	.	.	.	8F	.	.
[4dd	.	.	.	[4B-	.	.
.	.	8g	.	.	8E-	.
=47	=47	=47	=47	=47	=47	=47
8dd]	1r	8f	1r	4B-]	2F	1r
8g	.	8e-	.	.	.	.
8f	.	8d	.	4A	.	.
8e-	.	8c	.	.	.	.
8d	.	4d	.	4B-	4.BB-	.
8f	.	.	.	.	.	.
8g	.	4r	.	4r	.	.
8a	.	.	.	.	8C	.
=48	=48	=48	=48	=48	=48	=48
8b-	1r	8r	1r	2r	4.D	1r
8f	.	8A	.	.	.	.
4.b-	.	8B-	.	.	.	.
.	.	8c	.	.	8E-	.
.	.	8d	.	2f	2F	.
8cc	.	8c	.	.	.	.
8b-	.	4e-	.	.	.	.
8a	.	.	.	.	.	.
=49	=49	=49	=49	=49	=49	=49
8b-	1r	4d	1r	4.B-	2G	1r
8cc	.	.	.	.	.	.
4.dd	.	8g	.	.	.	.
.	.	8a	.	8c	.	.
.	.	8b-	.	4.d	4.F	.
8ee-	.	8cc	.	.	.	.
[4ff	.	[4dd	.	.	.	.
.	.	.	.	8e-	8E-	.
=50	=50	=50	=50	=50	=50	=50
8ff]	1r	8dd]	1r	2f	[2D	1r
8ee-	.	8cc	.	.	.	.
8dd	.	8b-	.	.	.	.
8cc	.	8a	.	.	.	.
4.b-	.	8g	.	2g	8D]	.
.	.	8a	.	.	8C	.
.	.	[4b-	.	.	8D	.
8cc	.	.	.	.	8E-	.
=51	=51	=51	=51	=51	=51	=51
4dd	1r	8b-]	1r	4.f	[1F	1r
.	.	8g	.	.	.	.
4cc	.	4.a	.	.	.	.
.	.	.	.	8e-	.	.
[2ff	.	.	.	[2d	.	.
.	.	8f	.	.	.	.
.	.	8g	.	.	.	.
.	.	8a	.	.	.	.
=52	=52	=52	=52	=52	=52	=52
8ff]	1r	[2b-	1r	8d]	1F_	1r
8ee	.	.	.	8c	.	.
8ff	.	.	.	8d	.	.
8gg	.	.	.	8e	.	.
[2cc	.	8b-]	.	[2f	.	.
.	.	8b-	.	.	.	.
.	.	8a	.	.	.	.
.	.	8g	.	.	.	.
=53	=53	=53	=53	=53	=53	=53
4cc]	1r	4a	1r	4f]	4F]	1r
4ff	.	2r	.	4r	2.r	.
4.cc	.	.	.	4f	.	.
.	.	4cc	.	[4c	.	.
8dd	.	.	.	.	.	.
=54	=54	=54	=54	=54	=54	=54
4.ee-	1r	4.g	1r	8c]	4c	1r
.	.	.	.	8d	.	.
.	.	.	.	4.e-	4.G	.
8ff	.	8a	.	.	.	.
4gg	.	4.b-	.	.	.	.
.	.	.	.	8f	8A	.
[4dd	.	.	.	4g	[4B-	.
.	.	8cc	.	.	.	.
=55	=55	=55	=55	=55	=55	=55
8dd]	1r	4dd	1r	4.d	8B-]	1r
8ee	.	.	.	.	8c	.
4.ff	.	4.a	.	.	4d	.
.	.	.	.	8e	.	.
.	.	.	.	4.f	4.A	.
8gg	.	8b-	.	.	.	.
4aa	.	[4cc	.	.	.	.
.	.	.	.	8g	8B-	.
=56	=56	=56	=56	=56	=56	=56
8ee	1r	4cc]	1r	4a	4c	1r
8ff	.	.	.	.	.	.
4gg	.	2b-	.	8e	8G	.
.	.	.	.	8f	8A	.
8dd	.	.	.	4g	4B-	.
8ee	.	.	.	.	.	.
4ff	.	[4a	.	[4d	8F	.
.	.	.	.	.	8G	.
=57	=57	=57	=57	=57	=57	=57
2ee	1r	8a]	1r	8d]	[2A	1r
.	.	8b	.	8d	.	.
.	.	8a	.	8c#	.	.
.	.	8g#	.	8B	.	.
4.aa	.	4a	.	2c#	8A]	.
.	.	.	.	.	8G	.
.	.	4r	.	.	8F	.
8gg	.	.	.	.	8E	.
=58	=58	=58	=58	=58	=58	=58
4.ff	1r	2r	1r	8d	2D	1r
.	.	.	.	8A	.	.
.	.	.	.	4.c	.	.
8ee	.	.	.	.	.	.
2dd	.	2d	.	.	4r	.
.	.	.	.	8A	.	.
.	.	.	.	8B-	[4G	.
.	.	.	.	8g	.	.
=59	=59	=59	=59	=59	=59	=59
2cc#	1r	4.a	1r	4e	8G]	1r
.	.	.	.	.	8E	.
.	.	.	.	4.A	[2.F	.
.	.	8g	.	.	.	.
4.dd	.	4.f	.	.	.	.
.	.	.	.	8A	.	.
.	.	.	.	8B	.	.
8ee	.	8e	.	8c#	.	.
=60	=60	=60	=60	=60	=60	=60
[2ff	1r	2d	1r	4d	8F]	1r
.	.	.	.	.	8E	.
.	.	.	.	2r	8F	.
.	.	.	.	.	8G	.
8ff]	.	2c#	.	.	[2A	.
8gg	.	.	.	.	.	.
8ff	.	.	.	4a	.	.
8ee	.	.	.	.	.	.
=61	=61	=61	=61	=61	=61	=61
2.dd	1r	4.d	1r	4b-	8A]	1r
.	.	.	.	.	8F#	.
.	.	.	.	4B-	4G	.
.	.	8e	.	.	.	.
.	.	[2f	.	8A	2D	.
.	.	.	.	8G	.	.
[4a	.	.	.	8A	.	.
.	.	.	.	8B-	.	.
=62	=62	=62	=62	=62	=62	=62
4a]	1r	8f]	1r	[2c	2AA	1r
.	.	8g	.	.	.	.
4cc	.	8f	.	.	.	.
.	.	8e-	.	.	.	.
[2f	.	[2d	.	8c]	2BB-	.
.	.	.	.	8c	.	.
.	.	.	.	8B-	.	.
.	.	.	.	8A	.	.
=63	=63	=63	=63	=63	=63	=63
8f]	1r	2d_	1r	[1G	2BB	1r
8a	.	.	.	.	.	.
8g	.	.	.	.	.	.
8f	.	.	.	.	.	.
[2e	.	8d]	.	.	2C	.
.	.	8d]	.	.	.	.
.	.	8c	.	.	.	.
.	.	8B-	.	.	.	.
=64	=64	=64	=64	=64	=64	=64
2e_	1r	2.A	1r	8G]	2C#	1r
.	.	.	.	8G	.	.
.	.	.	.	8F	.	.
.	.	.	.	8E	.	.
8e]	.	.	.	2F	2D	.
8d	.	.	.	.	.	.
8c#	.	4G#	.	.	.	.
8d	.	.	.	.	.	.
=65	=65	=65	=65	=65	=65	=65
4c#	1r	4A	1r	4E	4AA	1r
4ee	.	2r	.	2.r	4r	.
4.aa	.	.	.	.	4A	.
.	.	4a	.	.	[4d	.
8gg	.	.	.	.	.	.
=66	=66	=66	=66	=66	=66	=66
4.ff	1r	4.dd	1r	4d	8d]	1r
.	.	.	.	.	8c	.
.	.	.	.	4.g	4.B-	.
8ee	.	8cc	.	.	.	.
4dd	.	4.b-	.	.	.	.
.	.	.	.	8f	8A	.
[4gg	.	.	.	[4e	4G	.
.	.	8a	.	.	.	.
=67	=67	=67	=67	=67	=67	=67
8gg]	1r	4g	1r	8e]	4.c	1r
8ff	.	.	.	8d	.	.
4.ee	.	4.cc	.	4c	.	.
.	.	.	.	.	8B-	.
.	.	.	.	4.f	4.A	.
8dd	.	8b-	.	.	.	.
4cc	.	[4a	.	.	.	.
.	.	.	.	8e	8G	.
=68	=68	=68	=68	=68	=68	=68
8ff	1r	8a]	1r	2.d	4F	1r
8ee	.	8g	.	.	.	.
4dd	.	4f	.	.	8B-	.
.	.	.	.	.	8A	.
8gg	.	8b-	.	.	4G	.
8ff	.	8a	.	.	.	.
4ee	.	4g	.	[4e	8c	.
.	.	.	.	.	8B-	.
=69	=69	=69	=69	=69	=69	=69
2aa	1r	8cc	1r	8e]	2A	1r
.	.	8b-	.	8d	.	.
.	.	4.cc	.	8e	.	.
.	.	.	.	8f#	.	.
4.dd	.	.	.	2g	2G	.
.	.	8a	.	.	.	.
.	.	4b-	.	.	.	.
8ee	.	.	.	.	.	.
=70	=70	=70	=70	=70	=70	=70
4.ff	1r	8a	1r	2a	2D	1r
.	.	8cc#	.	.	.	.
.	.	8dd	.	.	.	.
8gg	.	8ee	.	.	.	.
2aa	.	2ff	.	4.d	8r	.
.	.	.	.	.	8g	.
.	.	.	.	.	8f	.
.	.	.	.	8e	8e	.
=71	=71	=71	=71	=71	=71	=71
2bb-	1r	8r	1r	4.f	2.d	1r
.	.	8aa	.	.	.	.
.	.	8gg	.	.	.	.
.	.	8ff	.	8g	.	.
4.aa	.	8ee	.	2a	.	.
.	.	8dd	.	.	.	.
.	.	4ee	.	.	4c#	.
8gg	.	.	.	.	.	.
=72	=72	=72	=72	=72	=72	=72
[2ff	1r	2dd	1r	2b-	8d	1r
.	.	.	.	.	8G	.
.	.	.	.	.	8A	.
.	.	.	.	.	8B-	.
8ff]	.	2r	.	4.a	8c	.
8ee	.	.	.	.	8C	.
8ff	.	.	.	.	8D	.
8gg	.	.	.	8g	8E	.
=73	=73	=73	=73	=73	=73	=73
8aa	1r	1r	1r	[2f	8F	1r
8gg	.	.	.	.	8G	.
8ff	.	.	.	.	8A	.
8aa	.	.	.	.	8F	.
[2dd	.	.	.	8f]	4B-	.
.	.	.	.	8e	.	.
.	.	.	.	8f#	8A	.
.	.	.	.	8g	8G	.
=74	=74	=74	=74	=74	=74	=74
8dd]	1r	1r	1r	8a	4F#	1r
8b-	.	.	.	8g	.	.
2cc	.	.	.	8f#	4A	.
.	.	.	.	8a	.	.
.	.	.	.	4d	8B-	.
.	.	.	.	.	8AA	.
4b-	.	.	.	[4g	8BB-	.
.	.	.	.	.	8C	.
=75	=75	=75	=75	=75	=75	=75
[2a	1r	1r	1r	8g]	8D	1r
.	.	.	.	8c#	8E	.
.	.	.	.	8d	8F	.
.	.	.	.	8f	8D	.
8a]	.	.	.	[2B-	8G	.
8d	.	.	.	.	8F	.
8g	.	.	.	.	8E	.
8b-	.	.	.	.	8G	.
=76	=76	=76	=76	=76	=76	=76
2.e]	1r	1r	1r	8B-]	8C#	1r
.	.	.	.	8A	8D	.
.	.	.	.	8G	8E	.
.	.	.	.	8A	8C#	.
.	.	.	.	2F	8D	.
.	.	.	.	.	8C	.
[4d	.	.	.	.	8BB-	.
.	.	.	.	.	8D	.
=77	=77	=77	=77	=77	=77	=77
8d]	1r	1r	1r	2E	8GG#	1r
8c#	.	.	.	.	8AA	.
8d	.	.	.	.	8BB	.
8B	.	.	.	.	8GG#	.
8c#	.	.	.	4.A	8AA	.
8e	.	.	.	.	8G	.
[4a	.	.	.	.	8F	.
.	.	.	.	8G	8E	.
=78	=78	=78	=78	=78	=78	=78
8a]	1r	2d	1r	4.F	[2D	1r
8b-	.	.	.	.	.	.
8a	.	.	.	.	.	.
8g	.	.	.	8E	.	.
8f	.	4.a	.	2D	8D]	.
8e	.	.	.	.	8C	.
8d	.	.	.	.	4BB-	.
8e	.	8g	.	.	.	.
=79	=79	=79	=79	=79	=79	=79
8f	1r	4.f	1r	2C#	8AA	1r
8g	.	.	.	.	8BB-	.
4.a	.	.	.	.	8AA	.
.	.	8e	.	.	8GG	.
.	.	2d	.	4.D	4FF	.
8g	.	.	.	.	.	.
8f	.	.	.	.	4BB-	.
8g	.	.	.	8E	.	.
=80	=80	=80	=80	=80	=80	=80
8a	1r	2c#	1r	[2F	2.AA	1r
8g	.	.	.	.	.	.
8f	.	.	.	.	.	.
8e	.	.	.	.	.	.
8d	.	4.d	.	8F]	.	.
8b-	.	.	.	8G	.	.
8a	.	.	.	8F	8BB	.
8g	.	8e	.	8E	8C#	.
=81	=81	=81	=81	=81	=81	=81
8f	1r	[2f	1r	8D	[2D	1r
8a	.	.	.	8F	.	.
8b	.	.	.	8G	.	.
8cc#	.	.	.	8A	.	.
[2dd	.	8f]	.	[2B-	8D]	.
.	.	8g	.	.	8C#	.
.	.	8f	.	.	8D	.
.	.	8e	.	.	8E	.
=82	=82	=82	=82	=82	=82	=82
8dd]	1r	2.d	1r	8B-]	4F	1r
8ee-	.	.	.	8c	.	.
8dd	.	.	.	8B-	4F#	.
8cc	.	.	.	8A	.	.
8b-	.	.	.	8G	[2G	.
8dd	.	.	.	8B-	.	.
8ee	.	4r	.	8c	.	.
8ff#	.	.	.	8d	.	.
=83	=83	=83	=83	=83	=83	=83
[2gg	1r	8r	1r	2e-	8G]	1r
.	.	8a	.	.	8F#	.
.	.	8b-	.	.	8G	.
.	.	8cc	.	.	8A	.
8gg]	.	2dd	.	4d	4.B-	.
8aa	.	.	.	.	.	.
8gg	.	.	.	[4g	.	.
8ff	.	.	.	.	8B	.
=84	=84	=84	=84	=84	=84	=84
8ee	1r	[2a	1r	4g]	8c#	1r
8cc#	.	.	.	.	8A	.
[2dd	.	.	.	8f	8d	.
.	.	.	.	8e	8c	.
.	.	8a]	.	8d	8B	.
.	.	8a	.	8f	8A	.
8dd]	.	[4g	.	8e	[4B-	.
8gg	.	.	.	8d	.	.
=85	=85	=85	=85	=85	=85	=85
4cc#	1r	8g]	1r	4e	8B-]	1r
.	.	8a	.	.	4A	.
2dd	.	4b-	.	4f	.	.
.	.	.	.	.	8G#	.
.	.	4.a	.	8e	4A	.
.	.	.	.	8d	.	.
4cc#	.	.	.	4e	4AA	.
.	.	[8g	.	.	.	.
=86	=86	=86	=86	=86	=86	=86
2dd	1r	8g]	2d	2d	2A	2D
.	.	8e	.	.	.	.
.	.	4f#	.	.	.	.
8r	.	4.a	2r	8r	4.D	2r
8dd	.	.	.	8E	.	.
8cc	.	.	.	8F#	.	.
8b-	.	8g	.	8G	8E	.
=87	=87	=87	=87	=87	=87	=87
8a	1r	4.f#	1r	8A	4.F#	2D
8b-	.	.	.	8G	.	.
8a	.	.	.	8A	.	.
8g	.	8e	.	8B-	8G	.
8f#	.	2d	.	8c	2A	2r
8g	.	.	.	8B-	.	.
8f#	.	.	.	8c	.	.
8a	.	.	.	8F#	.	.
=88	=88	=88	=88	=88	=88	=88
8e	2r	2c#	1r	8G	2B-	2D
8d	.	.	.	8A	.	.
8e	.	.	.	8G	.	.
8g	.	.	.	8E	.	.
8f#	8r	4.d	.	8A	4.A	2r
8a	[4.a	.	.	8G	.	.
[4cc	.	.	.	8F#	.	.
.	.	8e	.	8E	8G	.
=89	=89	=89	=89	=89	=89	=89
2cc_	2a_	[2f#	1r	[2D	[2F#	8r
.	.	.	.	.	.	8C
.	.	.	.	.	.	8BB-
.	.	.	.	.	.	8AA
8cc]	8a]	8f#]	.	8D]	8F#]	2GG
8b-	8b-	8g	.	8C#	8E	.
8dd	8a]	8f#	.	8D	8F#	.
8cc#	8g	8e	.	8E	8G	.
=90	=90	=90	=90	=90	=90	=90
[1dd	[1f#	[1d	1r	[1F#	[1A	[1D
=91	=91	=91	=91	=91	=91	=91
1dd]	1f#]	1d]	1r	1F#]	1A]	1D]
==	==	==	==	==	==	==
*-	*-	*-	*-	*-	*-	*-
!!!RWG1: This file contains only pitch and duration data.
!!!RWG2: Transposing instruments are not transposed.
!!!RWG3: Spines may have incompatible meters.
!!!RWG4: Durations of rests and tied notes may be interpreted.
!!!RWG: Key is interpreted using the Humdrum key tool.
!!!AFT: stage1
!!!END: 1997/04/15/
!!format changes:
!!content changes:
!!public access: complete
!!!KEY: 3953716547
!!!EMD: Converted from MuseData to Humdrum Dec 19, 2000, by Andreas Kornstaedt using muse2kern.
